X: 1
T: S.r Arch.d Grant of Monemusk's Reel
T: Sir Archibald Grant of Monemusk's Reel
C: Daniel Dow c.1776
R: strathspey
%D:1776
B: Daniel Dow "Thirty Seven New Reels & Strathspeys for the Violin, Harpsichord, Piano Forte or German Flute" 1776
Z: 2021 John Chambers <jc:trillian.mit.edu>
M: C
L: 1/8
K: G
e |\
d<GTB>G d>Gc>e | d>GTB>G A/B/A ce |\
d>GTB>G B/c/d dg | e>cA>d TB>G G :: g- |\
g>dd>g B>gd>(f | g)>dcg B>gA>(f |
g)de>g d>gB>g | e>cA>d TB>GG>g- ||\
g>dd>g B>gd>(f | g)>dc>g BgAf |\
g>de>g d>gc>g | B>gA>g TB>G G |]
